X: 21234
T: Keel Row, The
R: polka
M: 2/4
K: Gmajor
|:{A}.B3B .c3c|B~G3 AFDc|B~G3 .c2dc|1 BGAF G2z2:|2 BGAF G3D||
|:{A}B2dB e3d|B~G3 c~A3|Bddg e2dc|BGAF G3D:|

